**kern	**silbe	**harmony	**phrase	**leadinstrument	**rhyme	**timestamp	**harte
*ICvox	*	*M4/4	*	*	*	*	*M4/4
*VRlead	*	*	*	*	*	*	*
*Hstimme	*	*	*	*	*	*	*
*G:	*	*G:	*	*	*	*	*G:
*M4/4	*	*	*	*	*	*	*
*clefG2	*	*	*	*	*	*	*
r;	.	1r;	.	r	.	0	N.C.
r;	.	1r;	.	r	.	0.147	N.C.
=1	=1	=1	=1	=1	=1	=1	=1
*>Letter>A	*>Letter>A	*>Letter>A	*>Letter>A	*>Letter>A	*>Letter>A	*>Letter>A	*>Letter>A
*>Label>Intro	*>Label>Intro	*>Label>Intro	*>Label>Intro	*>Label>Intro	*>Label>Intro	*>Label>Intro	*>Label>Intro
1r	.	2DM	newline	guitar	.	2.841	D:maj
.	.	2CM	.	guitar	.	4.075	C:maj(9)
=2	=2	=2	=2	=2	=2	=2	=2
1r	.	1GM	.	guitar	.	5.31	G:maj
=3	=3	=3	=3	=3	=3	=3	=3
1r	.	2DM	.	guitar	.	7.778	D:maj
.	.	2CM	.	guitar	.	9.013	C:maj(9)
=4	=4	=4	=4	=4	=4	=4	=4
1r	.	1GM	.	guitar	.	10.247	G:maj
=5	=5	=5	=5	=5	=5	=5	=5
1r	.	2DM	newline	guitar	.	12.716	D:maj
.	.	2CM	.	guitar	.	13.94	C:maj(9)
=6	=6	=6	=6	=6	=6	=6	=6
1r	.	1GM	.	guitar	.	15.164	G:maj
=7	=7	=7	=7	=7	=7	=7	=7
1r	.	2DM	.	guitar	.	17.612	D:maj
.	.	2CM	.	guitar	.	18.836	C:maj(9)
=8	=8	=8	=8	=8	=8	=8	=8
1r	.	1GM	.	guitar	.	20.059	G:maj
=9	=9	=9	=9	=9	=9	=9	=9
*>Letter>A	*>Letter>A	*>Letter>A	*>Letter>A	*>Letter>A	*>Letter>A	*>Letter>A	*>Letter>A
*>Label>Verse	*>Label>Verse	*>Label>Verse	*>Label>Verse	*>Label>Verse	*>Label>Verse	*>Label>Verse	*>Label>Verse
4r	.	2DM	newline	voice	.	22.507	D:maj
16f#	Big	.	.	.	.	.	.
8e	_	.	.	.	.	.	.
8.e	wheel	.	.	.	.	.	.
.	.	2CM	.	voice	.	23.735	C:maj(9)
8d	_	.	.	.	.	.	.
16d	keep	.	.	.	.	.	.
8d	on	.	.	.	.	.	.
[16d	turn-	.	.	.	.	.	.
=10	=10	=10	=10	=10	=10	=10	=10
8d]	_	1GM	.	voice	.	24.962	G:maj
16e	-in'	.	.	.	a	.	.
16r	.	.	.	.	.	.	.
4r	.	.	.	.	.	.	.
2r	.	.	.	.	.	.	.
=11	=11	=11	=11	=11	=11	=11	=11
4r	.	2DM	.	voice	.	27.418	D:maj
16f#	Car-	.	.	.	.	.	.
16e	-ry	.	.	.	.	.	.
8e	me	.	.	.	.	.	.
8.e	home	2CM	.	voice	.	28.645	C:maj(9)
16d	to	.	.	.	.	.	.
16d	see	.	.	.	.	.	.
8d	my	.	.	.	.	.	.
[16d	kin	.	.	.	A	.	.
=12	=12	=12	=12	=12	=12	=12	=12
4d]	_	1GM	.	voice	.	29.873	G:maj
4r	.	.	.	.	.	.	.
2r	.	.	.	.	.	.	.
=13	=13	=13	=13	=13	=13	=13	=13
4r	.	2DM	newline	voice	.	32.328	D:maj
16f#	Sing-	.	.	.	.	.	.
8.e	-in'	.	.	.	.	.	.
8e	songs	2CM	.	voice	.	33.549	C:maj(9)
16d	a-	.	.	.	.	.	.
8.d	-bout	.	.	.	.	.	.
16d	the	.	.	.	.	.	.
[16d	south	.	.	.	.	.	.
=14	=14	=14	=14	=14	=14	=14	=14
8d]	_	1GM	.	voice	.	34.771	G:maj
4G	land	.	.	.	A	.	.
8r	.	.	.	.	.	.	.
2r	.	.	.	.	.	.	.
=15	=15	=15	=15	=15	=15	=15	=15
8.r	.	2DM	.	voice	.	37.213	D:maj
16d	I	.	.	.	.	.	.
16f#	miss	.	.	.	.	.	.
8e	ole'	.	.	.	.	.	.
8.e	ba-	.	.	.	.	.	.
.	.	2CM	.	voice	.	38.435	C:maj(9)
8d	-my	.	.	.	.	.	.
8d	once	.	.	.	.	.	.
16d	a-	.	.	.	.	.	.
[16d	-gain	.	.	.	A	.	.
=16	=16	=16	=16	=16	=16	=16	=16
16d]	_	1GM	.	voice	.	39.656	G:maj
16d	and	.	.	.	.	.	.
8d	I	.	.	.	.	.	.
16d	think	.	.	.	.	.	.
16d	it's	.	.	.	.	.	.
16d	a	.	.	.	.	.	.
8.G	sin	.	.	.	A	.	.
8r	.	.	.	.	.	.	.
16r	.	.	.	.	.	.	.
8.B	Yes	.	.	.	.	.	.
=17	=17	=17	=17	=17	=17	=17	=17
*>Letter>A	*>Letter>A	*>Letter>A	*>Letter>A	*>Letter>A	*>Letter>A	*>Letter>A	*>Letter>A
*>Label>Solo	*>Label>Solo	*>Label>Solo	*>Label>Solo	*>Label>Solo	*>Label>Solo	*>Label>Solo	*>Label>Solo
1r	.	2DM	newline	guitar	.	42.099	D:maj
.	.	2CM	.	guitar	.	43.343	C:maj
=18	=18	=18	=18	=18	=18	=18	=18
1r	.	1GM	.	guitar	.	44.588	G:maj
=19	=19	=19	=19	=19	=19	=19	=19
1r	.	2DM	.	guitar	.	47.076	D:maj
.	.	2CM	.	guitar	.	48.321	C:maj
=20	=20	=20	=20	=20	=20	=20	=20
1r	.	1GM	.	guitar	.	49.565	G:maj
=21	=21	=21	=21	=21	=21	=21	=21
*>Letter>A	*>Letter>A	*>Letter>A	*>Letter>A	*>Letter>A	*>Letter>A	*>Letter>A	*>Letter>A
*>Label>Verse	*>Label>Verse	*>Label>Verse	*>Label>Verse	*>Label>Verse	*>Label>Verse	*>Label>Verse	*>Label>Verse
8r	.	2DM	newline	voice	.	52.053	D:maj
16d	Well	.	.	.	.	.	.
16d	I	.	.	.	.	.	.
8f#	heard	.	.	.	.	.	.
16e	mis-	.	.	.	.	.	.
16e	-ter	.	.	.	.	.	.
4e	Young	2CM	.	voice	.	53.274	C:maj(9)
8e	sing	.	.	.	.	.	.
16d	a-	.	.	.	.	.	.
[16d	-bout	.	.	.	.	.	.
=22	=22	=22	=22	=22	=22	=22	=22
8d]	_	1GM	.	voice	.	54.494	G:maj
16G	her	.	.	.	B	.	.
16r	.	.	.	.	.	.	.
4r	.	.	.	.	.	.	.
2r	.	.	.	.	.	.	.
=23	=23	=23	=23	=23	=23	=23	=23
8r	.	2DM	.	voice	.	56.935	D:maj
16d	Well	.	.	.	.	.	.
16d	I	.	.	.	.	.	.
16f#	heard	.	.	.	.	.	.
8e	ole'	.	.	.	.	.	.
8.e	Neil	.	.	.	.	.	.
.	.	2CM	.	voice	.	58.156	C:maj(9)
8d	_	.	.	.	.	.	.
8d	put	.	.	.	.	.	.
16e	her	.	.	.	.	.	.
[16d	down	.	.	.	C	.	.
=24	=24	=24	=24	=24	=24	=24	=24
4d]	_	1GM	.	voice	.	59.376	G:maj
4r	.	.	.	.	.	.	.
2r	.	.	.	.	.	.	.
=25	=25	=25	=25	=25	=25	=25	=25
8r	.	2DM	newline	voice	.	61.817	D:maj
16d	Well	.	.	.	.	.	.
16d	I	.	.	.	.	.	.
8f#	hope	.	.	.	.	.	.
8e	Neil	.	.	.	.	.	.
4e	Young	2CM	.	voice	.	63.032	C:maj(9)
8e	will	.	.	.	.	.	.
16d	re-	.	.	.	.	.	.
[16d	-mem-	.	.	.	.	.	.
=26	=26	=26	=26	=26	=26	=26	=26
8d]	_	1GM	.	voice	.	64.248	G:maj
8G	-ber	.	.	.	b	.	.
4r	.	.	.	.	.	.	.
2r	.	.	.	.	.	.	.
=27	=27	=27	=27	=27	=27	=27	=27
8.r	.	2DM	.	voice	.	66.679	D:maj
16d	A	.	.	.	.	.	.
16f#	South-	.	.	.	.	.	.
8e	-ern	.	.	.	.	.	.
8.e	man	.	.	.	.	.	.
.	.	2CM	.	voice	.	67.894	C:maj(9)
8d	don't	.	.	.	.	.	.
8d	need	.	.	.	.	.	.
16d	him	.	.	.	.	.	.
16d	a-	.	.	.	.	.	.
=28	=28	=28	=28	=28	=28	=28	=28
4d	-round	1GM	.	voice	C	69.11	G:maj
16d	an-	.	.	.	.	.	.
16d	-y	.	.	.	.	.	.
8G	how	.	.	.	C	.	.
2r	.	.	.	.	.	.	.
=29	=29	=29	=29	=29	=29	=29	=29
*>Letter>A	*>Letter>A	*>Letter>A	*>Letter>A	*>Letter>A	*>Letter>A	*>Letter>A	*>Letter>A
*>Label>Chorus	*>Label>Chorus	*>Label>Chorus	*>Label>Chorus	*>Label>Chorus	*>Label>Chorus	*>Label>Chorus	*>Label>Chorus
4r	.	2DM	newline	voice	.	71.54	D:maj
4f#	Sweet	.	.	.	.	.	.
4e	home	2CM	.	voice	.	72.774	C:maj(9)
8.d	A-	.	.	.	.	.	.
16d	-la-	.	.	.	.	.	.
=30	=30	=30	=30	=30	=30	=30	=30
8d	-ba-	2.GM	.	voice	.	74.008	G:maj
8G	-ma	.	.	.	.	.	.
4r	.	.	.	.	.	.	.
2r	.	.	.	.	.	.	.
.	.	4CM	.	voice	.	75.858	C:5
=31	=31	=31	=31	=31	=31	=31	=31
4r	.	2DM	.	voice	.	76.475	D:maj
8f#	Where	.	.	.	.	.	.
8e	the	.	.	.	.	.	.
4e	skies	2CM	.	voice	.	77.708	C:maj(9)
8d	are	.	.	.	.	.	.
16d	so	.	.	.	.	.	.
[16d	blue	.	.	.	D	.	.
=32	=32	=32	=32	=32	=32	=32	=32
4d]	_	2GM	.	voice	.	78.942	G:maj
4r	.	.	.	.	.	.	.
2r	.	2CM	.	voice	.	80.176	C:5
=33	=33	=33	=33	=33	=33	=33	=33
4r	.	2DM	newline	voice	.	81.409	D:maj
4f#	Sweet	.	.	.	.	.	.
4e	home	2CM	.	voice	.	82.657	C:maj(9)
8.d	A-	.	.	.	.	.	.
16d	-la-	.	.	.	.	.	.
=34	=34	=34	=34	=34	=34	=34	=34
8d	-ba-	2.GM	.	voice	.	83.904	G:maj
8G	-ma	.	.	.	.	.	.
4r	.	.	.	.	.	.	.
2r	.	.	.	.	.	.	.
.	.	4CM	.	voice	.	85.776	C:5
=35	=35	=35	=35	=35	=35	=35	=35
4r	.	2DM	.	voice	.	86.4	D:maj
8f#	Lord	.	.	.	.	.	.
8e	I'm	.	.	.	.	.	.
16e	com-	2CM	.	voice	.	87.647	C:maj(9)
8.d	-in'	.	.	.	.	.	.
8.d	home	.	.	.	.	.	.
16e	to	.	.	.	.	.	.
=36	=36	=36	=36	=36	=36	=36	=36
4d	you	2GM	.	voice	D	88.895	G:maj
4r	.	.	.	.	.	.	.
2r	.	4FM	.	voice	.	90.142	F:maj
.	.	4CM	.	voice	.	90.766	C:maj/3
=37	=37	=37	=37	=37	=37	=37	=37
*>Letter>A	*>Letter>A	*>Letter>A	*>Letter>A	*>Letter>A	*>Letter>A	*>Letter>A	*>Letter>A
*>Label>Solo	*>Label>Solo	*>Label>Solo	*>Label>Solo	*>Label>Solo	*>Label>Solo	*>Label>Solo	*>Label>Solo
1r	.	2DM	newline	guitar	.	91.39	D:maj
.	.	2CM	.	guitar	.	92.603	C:maj(9)
=38	=38	=38	=38	=38	=38	=38	=38
1r	.	1GM	.	guitar	.	93.816	G:maj
=39	=39	=39	=39	=39	=39	=39	=39
1r	.	2DM	.	guitar	.	96.243	D:maj
.	.	2CM	.	guitar	.	97.456	C:maj(9)
=40	=40	=40	=40	=40	=40	=40	=40
1r	.	1GM	.	guitar	.	98.669	G:maj
=41	=41	=41	=41	=41	=41	=41	=41
*>Letter>A	*>Letter>A	*>Letter>A	*>Letter>A	*>Letter>A	*>Letter>A	*>Letter>A	*>Letter>A
*>Label>Verse	*>Label>Verse	*>Label>Verse	*>Label>Verse	*>Label>Verse	*>Label>Verse	*>Label>Verse	*>Label>Verse
8r	.	2DM	newline	voice	.	101.095	D:maj
8d	In	.	.	.	.	.	.
16f#	Bir-	.	.	.	.	.	.
8e	-ming-	.	.	.	.	.	.
8.e	-ham	.	.	.	.	.	.
.	.	2CM	.	voice	.	102.335	C:maj(9)
8d	they	.	.	.	.	.	.
8d	love	.	.	.	.	.	.
16d	the	.	.	.	.	.	.
[16d	gove-	.	.	.	.	.	.
=42	=42	=42	=42	=42	=42	=42	=42
8d]	_	2GM	.	voice	.	103.575	G:maj
8G	-nor	.	.	.	E	.	.
4r	.	.	.	.	.	.	.
4f	Boo	4FM	.	voice	D	104.815	F:maj
4e	hoo	4CM	.	voice	D	105.435	C:maj
=43	=43	=43	=43	=43	=43	=43	=43
8d	hoo	2DM	.	voice	D	106.055	D:maj
8d	Now	.	.	.	.	.	.
16f#	we	.	.	.	.	.	.
8e	all	.	.	.	.	.	.
8.e	did	.	.	.	.	.	.
.	.	2CM	.	voice	.	107.295	C:maj(9)
8d	what	.	.	.	.	.	.
8d	we	.	.	.	.	.	.
16d	could	.	.	.	.	.	.
[16G	do	.	.	.	D	.	.
=44	=44	=44	=44	=44	=44	=44	=44
8G]	_	1GM	.	voice	.	108.535	G:maj
8r	.	.	.	.	.	.	.
4r	.	.	.	.	.	.	.
2r	.	.	.	.	.	.	.
=45	=45	=45	=45	=45	=45	=45	=45
8r	.	2DM	newline	voice	.	111.016	D:maj
8d	Now	.	.	.	.	.	.
16f#	Wa-	.	.	.	.	.	.
8e	-ter-	.	.	.	.	.	.
[8.e	-gate	.	.	.	.	.	.
.	.	2CM	.	voice	.	112.245	C:maj(9)
8e]	_	.	.	.	.	.	.
8d	does	.	.	.	.	.	.
8d	not	.	.	.	.	.	.
=46	=46	=46	=46	=46	=46	=46	=46
8r	.	1GM	.	voice	.	113.474	G:maj
4d	bo-	.	.	.	.	.	.
16d	-ther	.	.	.	E	.	.
8.G	me	.	.	.	.	.	.
8r	.	.	.	.	.	.	.
4r	.	.	.	.	.	.	.
=47	=47	=47	=47	=47	=47	=47	=47
4r	.	2DM	.	voice	.	115.933	D:maj
8f#	Does	.	.	.	.	.	.
8e	your	.	.	.	.	.	.
8e	cons-	2CM	.	voice	.	117.162	C:maj(9)
8d	-ience	.	.	.	.	.	.
8d	bo-	.	.	.	.	.	.
16e	-ther	.	.	.	.	.	.
[16d	you?	.	.	.	D	.	.
=48	=48	=48	=48	=48	=48	=48	=48
4d]	_	1GM	.	voice	.	118.391	G:maj
8d	Tell	.	.	.	.	.	.
16d	me	.	.	.	.	.	.
8.G	true	.	.	.	D	.	.
8r	.	.	.	.	.	.	.
4r	.	.	.	.	.	.	.
=49	=49	=49	=49	=49	=49	=49	=49
*>Letter>A	*>Letter>A	*>Letter>A	*>Letter>A	*>Letter>A	*>Letter>A	*>Letter>A	*>Letter>A
*>Label>Chorus	*>Label>Chorus	*>Label>Chorus	*>Label>Chorus	*>Label>Chorus	*>Label>Chorus	*>Label>Chorus	*>Label>Chorus
4r	.	2DM	newline	voice	.	120.85	D:maj
4f#	Sweet	.	.	.	.	.	.
4e	home	2CM	.	voice	.	122.094	C:maj(9)
8.d	A-	.	.	.	.	.	.
16d	-la-	.	.	.	.	.	.
=50	=50	=50	=50	=50	=50	=50	=50
8d	-ba-	2.GM	.	voice	.	123.337	G:maj
8G	-ma	.	.	.	.	.	.
4r	.	.	.	.	.	.	.
2r	.	.	.	.	.	.	.
.	.	4CM	.	voice	.	125.202	C:5
=51	=51	=51	=51	=51	=51	=51	=51
4r	.	2DM	.	voice	.	125.824	D:maj
8f#	Where	.	.	.	.	.	.
8e	the	.	.	.	.	.	.
4e	skies	2CM	.	voice	.	127.068	C:maj(9)
8d	are	.	.	.	.	.	.
16d	so	.	.	.	.	.	.
[16d	blue	.	.	.	D	.	.
=52	=52	=52	=52	=52	=52	=52	=52
4d]	_	2GM	.	voice	.	128.311	G:maj
4r	.	.	.	.	.	.	.
2r	.	2CM	.	voice	.	129.555	C:5
=53	=53	=53	=53	=53	=53	=53	=53
4r	.	2DM	newline	voice	.	130.798	D:maj
4f#	Sweet	.	.	.	.	.	.
4e	home	2CM	.	voice	.	132.02	C:maj(9)
8.d	A-	.	.	.	.	.	.
16d	-la-	.	.	.	.	.	.
=54	=54	=54	=54	=54	=54	=54	=54
8d	-ba-	2.GM	.	voice	.	133.242	G:maj
8G	-ma	.	.	.	.	.	.
4r	.	.	.	.	.	.	.
2r	.	.	.	.	.	.	.
.	.	4CM	.	voice	.	135.075	C:5
=55	=55	=55	=55	=55	=55	=55	=55
4r	.	2DM	.	voice	.	135.686	D:maj
8f#	Lord	.	.	.	.	.	.
8e	I'm	.	.	.	.	.	.
16e	com-	2CM	.	voice	.	136.908	C:maj(9)
8.d	-in'	.	.	.	.	.	.
8.d	home	.	.	.	.	.	.
16e	to	.	.	.	.	.	.
=56	=56	=56	=56	=56	=56	=56	=56
8d	you	1GM	.	voice	D	138.13	G:maj
16d	Here	.	.	.	.	.	.
16d	I	.	.	.	.	.	.
8G	come	.	.	.	.	.	.
8r	.	.	.	.	.	.	.
8r	.	.	.	.	.	.	.
16B	A-	.	.	.	.	.	.
16B	-la-	.	.	.	.	.	.
16B	-ba-	.	.	.	.	.	.
16G	-ma	.	.	.	.	.	.
8r	.	.	.	.	.	.	.
=57	=57	=57	=57	=57	=57	=57	=57
*>Letter>A	*>Letter>A	*>Letter>A	*>Letter>A	*>Letter>A	*>Letter>A	*>Letter>A	*>Letter>A
*>Label>Solo	*>Label>Solo	*>Label>Solo	*>Label>Solo	*>Label>Solo	*>Label>Solo	*>Label>Solo	*>Label>Solo
1r	.	2DM	newline	guitar	.	140.574	D:maj
.	.	2CM	.	guitar	.	141.797	C:maj
=58	=58	=58	=58	=58	=58	=58	=58
1r	.	1GM	.	guitar	.	143.02	G:maj
=59	=59	=59	=59	=59	=59	=59	=59
1r	.	2DM	.	guitar	.	145.466	D:maj
.	.	2CM	.	guitar	.	146.689	C:maj
=60	=60	=60	=60	=60	=60	=60	=60
1r	.	1GM	.	guitar	.	147.913	G:maj
=61	=61	=61	=61	=61	=61	=61	=61
1r	.	2DM	.	guitar	.	150.359	D:maj
.	.	2CM	.	guitar	.	151.582	C:maj
=62	=62	=62	=62	=62	=62	=62	=62
1r	.	1GM	.	guitar	.	152.805	G:maj
=63	=63	=63	=63	=63	=63	=63	=63
1r	.	2DM	.	guitar	.	155.251	D:maj
.	.	2CM	.	guitar	.	156.474	C:maj
=64	=64	=64	=64	=64	=64	=64	=64
1r	.	1GM	.	guitar	.	157.697	G:maj
=65	=65	=65	=65	=65	=65	=65	=65
1r	.	2DM	.	guitar	.	160.144	D:maj
.	.	2CM	.	guitar	.	161.367	C:maj
=66	=66	=66	=66	=66	=66	=66	=66
1r	.	1GM	.	guitar	.	162.59	G:maj
=67	=67	=67	=67	=67	=67	=67	=67
1r	.	2DM	.	guitar	.	165.036	D:maj
.	.	2CM	.	guitar	.	166.259	C:maj
=68	=68	=68	=68	=68	=68	=68	=68
1r	.	1GM	.	guitar	.	167.482	G:maj
=69	=69	=69	=69	=69	=69	=69	=69
1r	.	2DM	.	guitar	.	169.928	D:maj
.	.	2CM	.	guitar	.	171.151	C:maj
=70	=70	=70	=70	=70	=70	=70	=70
1r	.	1GM	.	guitar	.	172.375	G:maj
=71	=71	=71	=71	=71	=71	=71	=71
1r	.	2DM	.	guitar	.	174.821	D:maj
.	.	2CM	.	guitar	.	176.044	C:maj
=72	=72	=72	=72	=72	=72	=72	=72
1r	.	1GM	.	guitar	.	177.267	G:maj
=73	=73	=73	=73	=73	=73	=73	=73
1r	.	2DM	.	guitar	.	179.713	D:maj
.	.	2CM	.	guitar	.	180.936	C:maj
=74	=74	=74	=74	=74	=74	=74	=74
1r	.	1GM	.	guitar	.	182.159	G:maj
=75	=75	=75	=75	=75	=75	=75	=75
1r	.	2DM	.	guitar	.	184.606	D:maj
.	.	2CM	.	guitar	.	185.829	C:maj
=76	=76	=76	=76	=76	=76	=76	=76
1r	.	1GM	.	guitar	.	187.052	G:maj
=77	=77	=77	=77	=77	=77	=77	=77
*>Letter>A	*>Letter>A	*>Letter>A	*>Letter>A	*>Letter>A	*>Letter>A	*>Letter>A	*>Letter>A
*>Label>Verse	*>Label>Verse	*>Label>Verse	*>Label>Verse	*>Label>Verse	*>Label>Verse	*>Label>Verse	*>Label>Verse
8r	.	2DM	newline	voice	.	189.498	D:maj
8d	Now	.	.	.	.	.	.
16f#	Mus-	.	.	.	.	.	.
8e	-cle	.	.	.	.	.	.
8.e	Shoals	.	.	.	.	.	.
.	.	2CM	.	voice	.	190.718	C:maj(9)
8d	has	.	.	.	.	.	.
8d	got	.	.	.	.	.	.
16d	the	.	.	.	.	.	.
[16d	Swamp-	.	.	.	.	.	.
=78	=78	=78	=78	=78	=78	=78	=78
8d]	_	1GM	.	voice	.	191.939	G:maj
4G	-ers	.	.	.	.	.	.
8r	.	.	.	.	.	.	.
2r	.	.	.	.	.	.	.
=79	=79	=79	=79	=79	=79	=79	=79
8.r	.	2DM	.	voice	.	194.379	D:maj
16d	and	.	.	.	.	.	.
16f#	they've	.	.	.	.	.	.
8e	been	.	.	.	.	.	.
8e	known	.	.	.	.	.	.
.	.	2CM	.	voice	.	195.6	C:maj(9)
16d	to	.	.	.	.	.	.
16d	pick	.	.	.	.	.	.
16d	a	.	.	.	.	.	.
8d	song	.	.	.	.	.	.
16e	or	.	.	.	.	.	.
[16d	two	.	.	.	D	.	.
=80	=80	=80	=80	=80	=80	=80	=80
4d]	_	1GM	.	voice	.	196.82	G:maj
4r	.	.	.	.	.	.	.
2r	.	.	.	.	.	.	.
=81	=81	=81	=81	=81	=81	=81	=81
4r	.	2DM	newline	voice	.	199.261	D:maj
8f#	Lord	.	.	.	.	.	.
8e	they	.	.	.	.	.	.
8e	get	2CM	.	voice	.	200.486	C:maj(9)
16d	me	.	.	.	.	.	.
[16d	off	.	.	.	.	.	.
4d]	_	.	.	.	.	.	.
=82	=82	=82	=82	=82	=82	=82	=82
8.d	so	1GM	.	voice	.	201.711	G:maj
8G	much	.	.	.	.	.	.
16r	.	.	.	.	.	.	.
8r	.	.	.	.	.	.	.
2r	.	.	.	.	.	.	.
=83	=83	=83	=83	=83	=83	=83	=83
8r	.	2DM	.	voice	.	204.161	D:maj
8d	They	.	.	.	.	.	.
8f#	pick	.	.	.	.	.	.
16e	me	.	.	.	.	.	.
8e	up	.	.	.	.	.	.
.	.	2CM	.	voice	.	205.387	C:maj(9)
16d	when	.	.	.	.	.	.
8d	I'm	.	.	.	.	.	.
8d	fee-	.	.	.	.	.	.
16e	-lin'	.	.	.	.	.	.
[16d	blue	.	.	.	D	.	.
=84	=84	=84	=84	=84	=84	=84	=84
8d]	_	1GM	.	voice	.	206.612	G:maj
8d	Now	.	.	.	.	.	.
16d	how	.	.	.	.	.	.
8d	'bout	.	.	.	.	.	.
8.G	you?	.	.	.	D	.	.
8r	.	.	.	.	.	.	.
4r	.	.	.	.	.	.	.
=85	=85	=85	=85	=85	=85	=85	=85
*>Letter>A	*>Letter>A	*>Letter>A	*>Letter>A	*>Letter>A	*>Letter>A	*>Letter>A	*>Letter>A
*>Label>Chorus	*>Label>Chorus	*>Label>Chorus	*>Label>Chorus	*>Label>Chorus	*>Label>Chorus	*>Label>Chorus	*>Label>Chorus
4r	.	2DM	newline	voice	.	209.062	D:maj
4f#	Sweet	.	.	.	.	.	.
4e	home	2CM	.	voice	.	210.294	C:maj(9)
8.d	A-	.	.	.	.	.	.
16d	-la-	.	.	.	.	.	.
=86	=86	=86	=86	=86	=86	=86	=86
8d	-ba-	2.GM	.	voice	.	211.526	G:maj
8G	-ma	.	.	.	.	.	.
4r	.	.	.	.	.	.	.
2r	.	.	.	.	.	.	.
.	.	4CM	.	voice	.	213.375	C:5
=87	=87	=87	=87	=87	=87	=87	=87
4r	.	2DM	.	voice	.	213.991	D:maj
8f#	Where	.	.	.	.	.	.
8e	the	.	.	.	.	.	.
4e	skies	2CM	.	voice	.	215.223	C:maj(9)
8d	are	.	.	.	.	.	.
16d	so	.	.	.	.	.	.
[16d	blue	.	.	.	D	.	.
=88	=88	=88	=88	=88	=88	=88	=88
4d]	_	2GM	.	voice	.	216.455	G:maj
4r	.	.	.	.	.	.	.
2r	.	2CM	.	voice	.	217.687	C:5
=89	=89	=89	=89	=89	=89	=89	=89
4r	.	2DM	newline	voice	.	218.919	D:maj
4f#	Sweet	.	.	.	.	.	.
4e	home	2CM	.	voice	.	220.151	C:maj(9)
8.d	A-	.	.	.	.	.	.
16d	-la-	.	.	.	.	.	.
=90	=90	=90	=90	=90	=90	=90	=90
8d	-ba-	2.GM	.	voice	.	221.382	G:maj
8G	-ma	.	.	.	.	.	.
4r	.	.	.	.	.	.	.
2r	.	.	.	.	.	.	.
.	.	4CM	.	voice	.	223.23	C:5
=91	=91	=91	=91	=91	=91	=91	=91
4r	.	2DM	.	voice	.	223.846	D:maj
8f#	Lord	.	.	.	.	.	.
8e	I'm	.	.	.	.	.	.
16e	com-	2CM	.	voice	.	225.077	C:maj(9)
8.d	-in'	.	.	.	.	.	.
8.d	home	.	.	.	.	.	.
16e	to	.	.	.	.	.	.
=92	=92	=92	=92	=92	=92	=92	=92
4d	you	2GM	.	voice	D	226.309	G:maj
4r	.	.	.	.	.	.	.
2r	.	4FM	.	voice	.	227.54	F:maj
.	.	4CM	.	voice	.	228.156	C:maj/3
=93	=93	=93	=93	=93	=93	=93	=93
*>Letter>A	*>Letter>A	*>Letter>A	*>Letter>A	*>Letter>A	*>Letter>A	*>Letter>A	*>Letter>A
*>Label>Chorus	*>Label>Chorus	*>Label>Chorus	*>Label>Chorus	*>Label>Chorus	*>Label>Chorus	*>Label>Chorus	*>Label>Chorus
4r	.	2DM	newline	voice	.	228.772	D:maj
4f#	Sweet	.	.	.	.	.	.
4e	home	2CM	.	voice	.	229.998	C:maj(9)
8.d	A-	.	.	.	.	.	.
16d	-la-	.	.	.	.	.	.
=94	=94	=94	=94	=94	=94	=94	=94
8d	-ba-	2.GM	.	voice	.	231.224	G:maj
8G	-ma	.	.	.	.	.	.
16d	Oh	.	.	.	.	.	.
8d	sweet	.	.	.	.	.	.
8.G	home	.	.	.	.	.	.
8r	.	.	.	.	.	.	.
4r	.	4CM	.	voice	.	233.063	C:5
=95	=95	=95	=95	=95	=95	=95	=95
4r	.	2DM	.	voice	.	233.676	D:maj
8f#	Where	.	.	.	.	.	.
8e	the	.	.	.	.	.	.
4e	skies	2CM	.	voice	.	234.903	C:maj(9)
8d	are	.	.	.	.	.	.
16d	so	.	.	.	.	.	.
[16d	blue	.	.	.	D	.	.
=96	=96	=96	=96	=96	=96	=96	=96
4d]	_	2GM	.	voice	.	236.129	G:maj
4r	.	.	.	.	.	.	.
2r	.	2CM	.	voice	.	237.355	C:5
=97	=97	=97	=97	=97	=97	=97	=97
4r	.	2DM	newline	voice	.	238.581	D:maj
4f#	Sweet	.	.	.	.	.	.
4e	home	2CM	.	voice	.	239.802	C:maj(9)
8.d	A-	.	.	.	.	.	.
16d	-la-	.	.	.	.	.	.
=98	=98	=98	=98	=98	=98	=98	=98
8d	-ba-	2.GM	.	voice	.	241.022	G:maj
8G	-ma	.	.	.	.	.	.
8r	.	.	.	.	.	.	.
[4d	Lord	.	.	.	.	.	.
16d]	_	.	.	.	.	.	.
16G	yeh	.	.	.	.	.	.
4r	.	4CM	.	voice	.	242.853	C:5
=99	=99	=99	=99	=99	=99	=99	=99
4r	.	2DM	.	voice	.	243.464	D:maj
8f#	Lord	.	.	.	.	.	.
8e	I'm	.	.	.	.	.	.
16e	com-	2CM	.	voice	.	244.684	C:maj(9)
8.d	-in'	.	.	.	.	.	.
8.d	home	.	.	.	.	.	.
16e	to	.	.	.	.	.	.
=100	=100	=100	=100	=100	=100	=100	=100
4d	you	1GM	.	voice	D	245.905	G:maj
4r	.	.	.	.	.	.	.
16r	.	.	.	.	.	.	.
4..f	Yeah	.	.	.	.	.	.
=101	=101	=101	=101	=101	=101	=101	=101
*>Letter>A	*>Letter>A	*>Letter>A	*>Letter>A	*>Letter>A	*>Letter>A	*>Letter>A	*>Letter>A
*>Label>Outro	*>Label>Outro	*>Label>Outro	*>Label>Outro	*>Label>Outro	*>Label>Outro	*>Label>Outro	*>Label>Outro
16B	yeah	2DM	newline	fadeout piano	.	248.346	D:maj
8.A	_	.	.	.	.	.	.
4r	.	.	.	.	.	.	.
2r	.	2CM	.	fadeout piano	.	249.429	C:maj
=102	=102	=102	=102	=102	=102	=102	=102
1r	.	1GM	.	fadeout piano	.	250.512	G:maj
=103	=103	=103	=103	=103	=103	=103	=103
1r	.	2DM	.	fadeout piano	.	252.677	D:maj
.	.	2CM	.	fadeout piano	.	253.76	C:maj
=104	=104	=104	=104	=104	=104	=104	=104
1r	.	1GM	.	fadeout piano	.	254.842	G:maj
=105	=105	=105	=105	=105	=105	=105	=105
1r	.	2DM	.	fadeout piano	.	257.008	D:maj
.	.	2CM	.	fadeout piano	.	258.09	C:maj
=106	=106	=106	=106	=106	=106	=106	=106
1r	.	1GM	.	fadeout piano	.	259.173	G:maj
=107	=107	=107	=107	=107	=107	=107	=107
1r	.	2DM	.	fadeout piano	.	261.338	D:maj
.	.	2CM	.	fadeout piano	.	262.421	C:maj
=108	=108	=108	=108	=108	=108	=108	=108
1r	.	1GM	.	fadeout piano	.	263.503	G:maj
=109	=109	=109	=109	=109	=109	=109	=109
1r	.	2DM	.	fadeout piano	.	265.669	D:maj
.	.	2CM	.	fadeout piano	.	266.751	C:maj
=110	=110	=110	=110	=110	=110	=110	=110
1r	.	1GM	.	fadeout piano	.	267.834	G:maj
=111	=111	=111	=111	=111	=111	=111	=111
1r	.	2DM	.	fadeout piano	.	269.999	D:maj
.	.	2CM	.	fadeout piano	.	271.082	C:maj
=112	=112	=112	=112	=112	=112	=112	=112
1r	.	1GM	.	fadeout piano	.	272.165	G:maj
=113	=113	=113	=113	=113	=113	=113	=113
1r	.	2DM	.	fadeout piano	.	274.33	D:maj
.	.	2CM	.	fadeout piano	.	275.412	C:maj
=114	=114	=114	=114	=114	=114	=114	=114
1r	.	1GM	.	fadeout piano	.	276.495	G:maj
=115	=115	=115	=115	=115	=115	=115	=115
1r	.	2DM	.	fadeout piano	.	278.66	D:maj
.	.	2CM	.	fadeout piano	.	279.743	C:maj
=116	=116	=116	=116	=116	=116	=116	=116
1r	.	1GM	.	fadeout piano	.	280.826	G:maj
r;	.	1r;	.	r	.	282.991	N.C.
r;	.	1r;	.	r	.	283.533	N.C.
*-	*-	*-	*-	*-	*-	*-	*-
!!!BillboardChartDate: 1974/10/26
!!!BillboardPeak: 8
!!!BillboardWeeksOnChart: 17
!!!COC: Lynyrd Skynyrd
!!!ENC: Nathaniel Condit-Schultz
!!!EST: Awating manual error checking and editing.
!!!OTL: Sweet Home Alabama
!!!RDF**chordsym: original McGill chord annotation + (implied pitch class set, with bass pitch in first position)
!!!RDF**harmony: **recip + pitch class of root + harmonic quality
!!!RDF**leadinstrument: original McGill primary instrumentation annotation
!!!RDF**phrase: newline = linebreak in original McGill transcription
!!!RDF**timestamp: McGill audio timestamp in seconds
!!!RDT: 2017/01/12/
!!!SampleActualRank: 8
!!!SampleID#: 0107
!!!SampleTargetRank: 9
